X: 11084
T: Duck, The
R: jig
M: 6/8
K: Dmajor
A2d def|e2d def|e2d def|e2d eff|
A2d def|e2d def|e2d fed|B2A Bcd:|
|:A2a f2e|fdd d2e|fdd d2e|fdd faa|
A2a f2e|fdd d2e|1 f2e fed|B2A Bcd:|2 faf fed|B2A Bcd||
|:A2c cef|e2c cef|e2c cef|e2c eff|
A2c cef|e2c cef|e2c fec|B2A Bcc:|
|:A2a f2e|faa f2e|faa f2e|fea fec|
A2a f2e|faa f2e|fAf fec|B2A Bcc:|

